images_elementary_svg/cmd/ko/lc_bold.svg

<svg height="24" width="24" xmlns="http://www.w3.org/2000/svg" xmlns:xlink="http://www.w3.org/1999/xlink"><radialGradient id="a" cx="11.904744" cy="4.36105" gradientTransform="matrix(.01593237 2.9166493 -2.3215578 .01268165 20.771084 -31.91211)" gradientUnits="userSpaceOnUse" r="6.758298"><stop offset="0" stop-color="#737373"/><stop offset=".26238" stop-color="#636363"/><stop offset=".704952" stop-color="#4b4b4b"/><stop offset="1" stop-color="#3f3f3f"/></radialGradient><radialGradient id="b" cx="40" cy="43.5" gradientTransform="matrix(1 0 0 .75 -25.767561 12.375)" gradientUnits="userSpaceOnUse" r="2" xlink:href="#f"/><radialGradient id="c" cx="9" cy="43.5" gradientTransform="matrix(1 0 0 .75 .479155 12.375)" gradientUnits="userSpaceOnUse" r="2" xlink:href="#f"/><radialGradient id="d" cx="40" cy="43.5" gradientTransform="matrix(1 0 0 .75 -26.446602 12.375)" gradientUnits="userSpaceOnUse" r="2" xlink:href="#f"/><linearGradient id="e" gradientTransform="matrix(.29101737 0 0 1 8.024068 0)" gradientUnits="userSpaceOnUse" x1="17" x2="17" y1="46.5" y2="43.5"><stop offset="0" stop-opacity="0"/><stop offset=".5"/><stop offset="1" stop-opacity="0"/></linearGradient><linearGradient id="f"><stop offset="0"/><stop offset="1" stop-opacity="0"/></linearGradient><path d="m4.5247422 3.9132211v2.3535295h6.8812718c-.425877 4.5725714-2.7121625 7.8002694-7.9795855 10.3331154l1.546605 2.331114c7.3295635-3.541501 9.4589465-8.696851 9.4589465-15.0177589zm13.0676918-2.1517983v20.6438152h2.981138v-20.6438152z" fill="url(#a)" stroke="#000" stroke-opacity=".6" transform="translate(-.073572 -.261423)"/><path d="m17.519531 1.5v1.5h2.980469v-1.5zm-13.0683591 2.1523438v1.5h9.8574221c.029219-.4936477.050781-.9910023.050781-1.5zm6.6562501 3.8535156c-.764636 3.7905746-3.0841719 6.5865846-7.7539064 8.8320316l.734375 1.107421c4.724057-2.473822 6.8395354-5.59527 7.2441404-9.9394526z" fill="#f4f2f9" opacity=".122"/><g transform="matrix(.73633307 0 0 1 10.520185 -22.5)"><path d="m13.553398 43.5v3h.5c.831 0 1.5-.669 1.5-1.5s-.669-1.5-1.5-1.5z" fill="url(#d)" opacity=".2"/><path d="m8.8854046 43.5c-.7790625 0-1.40625.627187-1.40625 1.40625v.1875c0 .779063.6271875 1.40625 1.40625 1.40625h.59375v-3z" fill="url(#c)" opacity=".2"/><path d="m9.4791546 43.5h4.0742434v3h-4.0742434z" fill="url(#e)" opacity=".2" stroke-width=".53946"/></g><g transform="matrix(.73633307 0 0 1 -2.479816 -26)"><path d="m14.232439 43.5v3h.5c.831 0 1.5-.669 1.5-1.5s-.669-1.5-1.5-1.5z" fill="url(#b)" opacity=".2"/><path d="m8.8854046 43.5c-.7790625 0-1.40625.627187-1.40625 1.40625v.1875c0 .779063.6271875 1.40625 1.40625 1.40625h.59375v-3z" fill="url(#c)" opacity=".2"/><path d="m9.4791546 43.5h4.7532844v3h-4.7532844z" fill="url(#e)" opacity=".2" stroke-width=".53946"/></g></svg>

<?xml version="1.0" encoding="UTF-8" standalone="no"?>
<svg
   xmlns:dc="http://purl.org/dc/elements/1.1/"
   xmlns:cc="http://creativecommons.org/ns#"
   xmlns:rdf="http://www.w3.org/1999/02/22-rdf-syntax-ns#"
   xmlns:svg="http://www.w3.org/2000/svg"
   xmlns="http://www.w3.org/2000/svg"
   xmlns:xlink="http://www.w3.org/1999/xlink"
   xmlns:sodipodi="http://sodipodi.sourceforge.net/DTD/sodipodi-0.dtd"
   xmlns:inkscape="http://www.inkscape.org/namespaces/inkscape"
   height="24"
   width="24"
   version="1.1"
   id="svg39"
   sodipodi:docname="lc_bold.svg"
   inkscape:version="0.92.4 (unknown)"
   inkscape:export-filename="/home/rizmut/Dokumen/Rizmut/Github/libreoffice-style-elementary/images_elementary/cmd/ko/lc_bold.png"
   inkscape:export-xdpi="96"
   inkscape:export-ydpi="96">
  <metadata
     id="metadata45">
    <rdf:RDF>
      <cc:Work
         rdf:about="">
        <dc:format>image/svg+xml</dc:format>
        <dc:type
           rdf:resource="http://purl.org/dc/dcmitype/StillImage" />
        <dc:title />
      </cc:Work>
    </rdf:RDF>
  </metadata>
  <defs
     id="defs43">
    <radialGradient
       inkscape:collect="always"
       xlink:href="#c"
       id="radialGradient884"
       cx="11.904744"
       cy="4.3610497"
       fx="11.904744"
       fy="4.3610497"
       r="6.7582979"
       gradientTransform="matrix(0.01593237,2.9166493,-2.3215578,0.01268165,20.771084,-31.91211)"
       gradientUnits="userSpaceOnUse" />
    <radialGradient
       id="d-0"
       cx="40"
       cy="43.5"
       gradientTransform="matrix(1,0,0,0.75,-25.767561,12.375)"
       gradientUnits="userSpaceOnUse"
       r="2"
       xlink:href="#a" />
    <linearGradient
       id="linearGradient1091">
      <stop
         offset="0"
         id="stop2-9" />
      <stop
         offset="1"
         stop-opacity="0"
         id="stop4-3" />
    </linearGradient>
    <radialGradient
       id="e-6"
       cx="9"
       cy="43.5"
       gradientTransform="matrix(1,0,0,0.75,0.47915456,12.375)"
       gradientUnits="userSpaceOnUse"
       r="2"
       xlink:href="#a" />
    <linearGradient
       id="b-0"
       gradientUnits="userSpaceOnUse"
       x1="17"
       x2="17"
       y1="46.5"
       y2="43.5"
       gradientTransform="matrix(0.29101737,0,0,1,8.0240678,0)">
      <stop
         offset="0"
         stop-opacity="0"
         id="stop7-6" />
      <stop
         offset=".5"
         id="stop9-2" />
      <stop
         offset="1"
         stop-opacity="0"
         id="stop11-6" />
    </linearGradient>
    <radialGradient
       inkscape:collect="always"
       xlink:href="#a"
       id="radialGradient1166"
       gradientUnits="userSpaceOnUse"
       gradientTransform="matrix(1,0,0,0.75,-26.446602,12.375)"
       cx="40"
       cy="43.5"
       r="2" />
    <radialGradient
       inkscape:collect="always"
       xlink:href="#a"
       id="radialGradient1168"
       gradientUnits="userSpaceOnUse"
       gradientTransform="matrix(1,0,0,0.75,0.47915456,12.375)"
       cx="9"
       cy="43.5"
       r="2" />
    <linearGradient
       inkscape:collect="always"
       xlink:href="#b-0"
       id="linearGradient1170"
       gradientUnits="userSpaceOnUse"
       gradientTransform="matrix(0.29101737,0,0,1,8.0240678,0)"
       x1="17"
       y1="46.5"
       x2="17"
       y2="43.5" />
    <radialGradient
       inkscape:collect="always"
       xlink:href="#c"
       id="radialGradient1199"
       gradientUnits="userSpaceOnUse"
       gradientTransform="matrix(0.01593237,2.9166493,-2.3215578,0.01268165,20.771084,-31.91211)"
       cx="11.904744"
       cy="4.3610497"
       fx="11.904744"
       fy="4.3610497"
       r="6.7582979" />
    <linearGradient
       inkscape:collect="always"
       xlink:href="#b-0"
       id="linearGradient1201"
       gradientUnits="userSpaceOnUse"
       gradientTransform="matrix(0.29101737,0,0,1,8.0240678,0)"
       x1="17"
       y1="46.5"
       x2="17"
       y2="43.5" />
  </defs>
  <sodipodi:namedview
     pagecolor="#ffffff"
     bordercolor="#666666"
     borderopacity="1"
     objecttolerance="10"
     gridtolerance="10"
     guidetolerance="10"
     inkscape:pageopacity="0"
     inkscape:pageshadow="2"
     inkscape:window-width="1366"
     inkscape:window-height="714"
     id="namedview41"
     showgrid="true"
     inkscape:snap-global="true"
     inkscape:zoom="16"
     inkscape:cx="5.8977541"
     inkscape:cy="9.5583862"
     inkscape:window-x="0"
     inkscape:window-y="28"
     inkscape:window-maximized="1"
     inkscape:current-layer="svg39">
    <inkscape:grid
       type="xygrid"
       id="grid852" />
  </sodipodi:namedview>
  <linearGradient
     id="a">
    <stop
       offset="0"
       id="stop2" />
    <stop
       offset="1"
       stop-opacity="0"
       id="stop4" />
  </linearGradient>
  <linearGradient
     id="b"
     gradientUnits="userSpaceOnUse"
     x1="17"
     x2="17"
     y1="46.5"
     y2="43.5">
    <stop
       offset="0"
       stop-opacity="0"
       id="stop7" />
    <stop
       offset=".5"
       id="stop9" />
    <stop
       offset="1"
       stop-opacity="0"
       id="stop11" />
  </linearGradient>
  <radialGradient
     id="c"
     cx="13.325464"
     cy="8.331412"
     gradientTransform="matrix(-3.7117719,0.11187051,-0.21033005,-6.7825606,47.356407,56.934853)"
     gradientUnits="userSpaceOnUse"
     r="5.349211">
    <stop
       offset="0"
       stop-color="#737373"
       id="stop14" />
    <stop
       offset=".26238"
       stop-color="#636363"
       id="stop16" />
    <stop
       offset=".704952"
       stop-color="#4b4b4b"
       id="stop18" />
    <stop
       offset="1"
       stop-color="#3f3f3f"
       id="stop20" />
  </radialGradient>
  <radialGradient
     id="d"
     cx="40"
     cy="43.5"
     gradientTransform="matrix(1,0,0,0.75,-32.283838,12.375)"
     gradientUnits="userSpaceOnUse"
     r="2"
     xlink:href="#a" />
  <radialGradient
     id="e"
     cx="9"
     cy="43.5"
     gradientTransform="matrix(1,0,0,0.75,-4,12.375)"
     gradientUnits="userSpaceOnUse"
     r="2"
     xlink:href="#a" />
  <g
     aria-label="기"
     style="font-style:normal;font-weight:normal;font-size:22.41456604px;line-height:1.25;font-family:sans-serif;letter-spacing:0px;word-spacing:0px;fill:url(#radialGradient884);fill-opacity:1;stroke:#000000;stroke-width:1;stroke-opacity:0.60000002;stroke-miterlimit:4;stroke-dasharray:none"
     id="text856"
     transform="translate(-0.073572,-0.2614228)">
    <path
       d="M 4.5247422,3.9132211 V 6.2667506 H 11.406014 C 10.980137,10.839322 8.6938515,14.06702 3.4264285,16.599866 l 1.546605,2.331114 C 12.302597,15.389479 14.43198,10.234129 14.43198,3.9132211 Z M 17.592434,1.7614228 V 22.405238 h 2.981138 V 1.7614228 Z"
       style="font-style:normal;font-variant:normal;font-weight:bold;font-stretch:normal;font-family:'Droid Sans';-inkscape-font-specification:'Droid Sans Bold';fill:url(#radialGradient1199);fill-opacity:1;stroke-width:1;stroke:#000000;stroke-opacity:0.60000002;stroke-miterlimit:4;stroke-dasharray:none"
       id="path1193"
       inkscape:connector-curvature="0" />
  </g>
  <g
     aria-label="기"
     style="font-style:normal;font-weight:normal;font-size:22.41456604px;line-height:1.25;font-family:sans-serif;letter-spacing:0px;word-spacing:0px;opacity:0.61000001;fill:none;fill-opacity:1;stroke:#000000;stroke-width:1;stroke-miterlimit:4;stroke-dasharray:none;stroke-opacity:1"
     id="text1029"
     transform="translate(-0.073572,-0.2614228)">
    <path
       style="font-style:normal;font-variant:normal;font-weight:bold;font-stretch:normal;font-family:'Droid Sans';-inkscape-font-specification:'Droid Sans Bold';fill:#f4f2f9;fill-opacity:1;stroke:none;stroke-width:1;stroke-miterlimit:4;stroke-dasharray:none;stroke-opacity:1;opacity:0.2"
       d="M 17.519531 1.5 L 17.519531 3 L 20.5 3 L 20.5 1.5 L 17.519531 1.5 z M 4.4511719 3.6523438 L 4.4511719 5.1523438 L 14.308594 5.1523438 C 14.337813 4.6586961 14.359375 4.1613415 14.359375 3.6523438 L 4.4511719 3.6523438 z M 11.107422 7.5058594 C 10.342786 11.296434 8.0232501 14.092444 3.3535156 16.337891 L 4.0878906 17.445312 C 8.8119476 14.97149 10.927426 11.850042 11.332031 7.5058594 L 11.107422 7.5058594 z "
       transform="translate(0.073572,0.2614228)"
       id="path1222" />
  </g>
  <g
     id="g1164"
     transform="matrix(0.73633307,0,0,1,10.520185,-22.5)">
    <path
       id="path1158"
       d="m 13.553398,43.5 v 3 h 0.5 c 0.831,0 1.5,-0.669 1.5,-1.5 0,-0.831 -0.669,-1.5 -1.5,-1.5 z"
       inkscape:connector-curvature="0"
       style="opacity:0.2;fill:url(#radialGradient1166)" />
    <path
       id="path1160"
       d="m 8.8854046,43.5 c -0.7790625,0 -1.40625,0.627187 -1.40625,1.40625 v 0.1875 c 0,0.779063 0.6271875,1.40625 1.40625,1.40625 h 0.59375 v -3 z"
       inkscape:connector-curvature="0"
       style="opacity:0.2;fill:url(#radialGradient1168)" />
    <path
       id="path1162"
       d="m 9.4791546,43.5 h 4.0742434 v 3 H 9.4791546 Z"
       inkscape:connector-curvature="0"
       style="opacity:0.2;fill:url(#linearGradient1170);stroke-width:0.53946024" />
  </g>
  <g
     transform="matrix(0.73633307,0,0,1,-2.4798155,-26)"
     id="g31">
    <path
       style="opacity:0.2;fill:url(#d-0)"
       inkscape:connector-curvature="0"
       d="m 14.232439,43.5 v 3 h 0.5 c 0.831,0 1.5,-0.669 1.5,-1.5 0,-0.831 -0.669,-1.5 -1.5,-1.5 z"
       id="path25" />
    <path
       style="opacity:0.2;fill:url(#e-6)"
       inkscape:connector-curvature="0"
       d="m 8.8854046,43.5 c -0.7790625,0 -1.40625,0.627187 -1.40625,1.40625 v 0.1875 c 0,0.779063 0.6271875,1.40625 1.40625,1.40625 h 0.59375 v -3 z"
       id="path27" />
    <path
       style="opacity:0.2;fill:url(#linearGradient1201);stroke-width:0.53946024"
       inkscape:connector-curvature="0"
       d="m 9.4791546,43.5 h 4.7532844 v 3 H 9.4791546 Z"
       id="path29"
       sodipodi:nodetypes="ccccc" />
  </g>
</svg>
